azure-patterns/svg-cosmosdb-mono.svg

<svg xmlns="http://www.w3.org/2000/svg" viewBox="0 0 24 24"><path d="M15.42 15.42c-5.165 5.165-10.556 8.501-13.375 8.501-.623 0-1.12-.163-1.461-.504-1.276-1.276-.048-4.726 2.824-8.774.119.384.258.758.425 1.118-2.531 3.72-3.168 6.322-2.542 6.949.175.175.506.211.754.211 2.216 0 7.279-2.82 12.668-8.208 7.031-7.031 8.944-12.475 7.997-13.422-.175-.175-.506-.211-.754-.211-1.276 0-3.498.94-6.18 2.761a9.035 9.035 0 0 0-1.133-.433C17.607 1.304 20.252.08 21.955.08c.623 0 1.12.163 1.461.504 1.889 1.888-1.691 8.53-7.996 14.836zm-7.253 3.575c.298-.21.603-.433.915-.669a6.953 6.953 0 0 1-3.834-4.699C4.355 9.873 6.67 6.09 10.409 5.193a6.926 6.926 0 0 1 7.936 3.875c.237-.314.46-.619.67-.916A7.98 7.98 0 0 0 12.035 4c-.613 0-1.236.072-1.859.221-4.281 1.026-6.923 5.341-5.9 9.638a7.97 7.97 0 0 0 3.891 5.136zm10.74-5.878c-.439 2.703-2.445 5.015-5.26 5.689-.168.04-.339.063-.51.091-.445.381-.888.742-1.329 1.093.072.003.142.01.213.01.613 0 1.236-.072 1.859-.221 3.727-.893 6.209-4.28 6.115-7.976-.35.44-.713.877-1.088 1.314zM4 2.997c-.285.38-.623.718-1.003 1.003.38.285.718.623 1.003 1.003.285-.38.623-.718 1.003-1.003A5.017 5.017 0 0 1 4 2.997M4 0a4 4 0 0 0 4 4 4 4 0 0 0-4 4 4 4 0 0 0-4-4 4 4 0 0 0 4-4zm17 20.643a4.01 4.01 0 0 1-.357.357c.126.111.246.231.357.357a4.01 4.01 0 0 1 .357-.357 4.01 4.01 0 0 1-.357-.357M21 18a3 3 0 0 0 3 3 3 3 0 0 0-3 3 3 3 0 0 0-3-3 3 3 0 0 0 3-3z"/></svg>

<svg xmlns="http://www.w3.org/2000/svg" viewBox="0 0 24 24">
                                
                            
  <path d="M15.42,15.42c-5.165,5.165-10.556,8.501-13.375,8.501c-0.623,0-1.12-0.163-1.461-0.504 c-1.276-1.276-0.048-4.726,2.824-8.774c0.119,0.384,0.258,0.758,0.425,1.118c-2.531,3.72-3.168,6.322-2.542,6.949 c0.175,0.175,0.506,0.211,0.754,0.211c2.216,0,7.279-2.82,12.668-8.208c7.031-7.031,8.944-12.475,7.997-13.422 c-0.175-0.175-0.506-0.211-0.754-0.211c-1.276,0-3.498,0.94-6.18,2.761c-0.365-0.17-0.744-0.312-1.133-0.433 c2.964-2.104,5.609-3.328,7.312-3.328c0.623,0,1.12,0.163,1.461,0.504C25.305,2.472,21.725,9.114,15.42,15.42z M8.167,18.995 c0.298-0.21,0.603-0.433,0.915-0.669c-1.877-0.879-3.325-2.561-3.834-4.699C4.355,9.873,6.67,6.09,10.409,5.193 C10.944,5.065,11.491,5,12.035,5c2.765,0,5.191,1.622,6.31,4.068c0.237-0.314,0.46-0.619,0.67-0.916C17.624,5.607,14.94,4,12.035,4 c-0.613,0-1.236,0.072-1.859,0.221c-4.281,1.026-6.923,5.341-5.9,9.638C4.817,16.133,6.278,17.944,8.167,18.995z M18.907,13.117 c-0.439,2.703-2.445,5.015-5.26,5.689c-0.168,0.04-0.339,0.063-0.51,0.091c-0.445,0.381-0.888,0.742-1.329,1.093 C11.88,19.993,11.95,20,12.021,20c0.613,0,1.236-0.072,1.859-0.221c3.727-0.893,6.209-4.28,6.115-7.976 C19.645,12.243,19.282,12.68,18.907,13.117z M4,2.997C3.715,3.377,3.377,3.715,2.997,4C3.377,4.285,3.715,4.623,4,5.003 C4.285,4.623,4.623,4.285,5.003,4C4.623,3.715,4.285,3.377,4,2.997 M4,0c0,2.209,1.791,4,4,4C5.791,4,4,5.791,4,8 c0-2.209-1.791-4-4-4C2.209,4,4,2.209,4,0L4,0z M21,20.643c-0.111,0.126-0.231,0.246-0.357,0.357 c0.126,0.111,0.246,0.231,0.357,0.357c0.111-0.126,0.231-0.246,0.357-0.357C21.231,20.889,21.111,20.769,21,20.643 M21,18 c0,1.657,1.343,3,3,3c-1.657,0-3,1.343-3,3c0-1.657-1.343-3-3-3C19.657,21,21,19.657,21,18L21,18z"></path>
</svg>
